X:1
T: Hornpipe
P:Kerr's 1st P.42,#2
R:Reel
Q: 232
K:G
M:4/4
L:1/8
|:GA Bc dB AG|gf ag fe dc|Bd BG ce cA|Bd BG FA FD|
GA Bc dB AG|gf ag fe dc|Bd BG ce cA|FD EF G2 G2:|
|:de fg fa fd|gb ge fa fd|de fg fa fd|Bd BG FA FD|
Bd BG ce cA|fa fd gb ge|dg fe dc BA|B2 G2 G2 z2:|
